!!!OTL: Tageweis von der Koenigstochter und dem jungen Grafen
!!!ARE: Europa, Mitteleuropa, Deutschland
!!!SCT: A0020C
!!!YEM: Copyright 1995, estate of Helmut Schaffrath.
**kern
*ICvox
*Ivox
!! Mixed meters:  4/2; 6/2
*M4/2
*k[b-]
*F:
{2f
=1
1a
2a
1b-
2b-
=2
1cc
1cc
2r}
{2cc
=3
1cc
2a
1b-
2cc
=4
1a
2g
1f}
{2f
=5
1a
2a
1b-
2b-
=6
1cc
1cc
2r}
{2cc
=7
1cc
2a
1b-
2cc
=8
1a
2g
1f}
{2cc
=9
1cc
2b-
1a
2g
=10
1f
2g
1a}
{2cc
=11
2dd
2cc
2cc
2a
=12
1cc
2b-
4a
4g
=13
1a
1r}
=14
{1b-
=15
*M6/2
1cc
2a
1b-
2a
=16
1g
1f
2r}
==
!!!AGN: Romanze, Ballade, Lied
!! Andere Melodie (1604)
!!!ONB: ESAC (Essen Associative Code) Database: ALTDEU
!!!AMT: irregular
!!!AIN: vox
!!!EED: Helmut Schaffrath
!!!EEV: 1.0
*-
